X: 41597
T: Up Da Stroods
R: reel
M: 4/4
K: Bminor
|:AB B2 dB B2|FBBc dBAF|AB B2 ABde|faef edBA|
AB B2 dB B2|FBBc dBAF|AB B2 ABde|faef edBA:|
|:A2 ag fede|f2 af f2 af|fg g2 fede|faef edBA|
A2 ag fede|f2 af f2 af|fg g2 fede|faef edBA:|

